X:8
T:Baginbun dance
C:Shane Bracken
Z:Transcribed by Lionel Gueganton
D:"Traffic" from Lia Luachra
D:Booklet notes
D:Having existed amongst the ranks of the "Gan Ainm"
D:for some time, this tune finally found a name after the band spent three
D:great weeks recording in Baginbun, Co Wexford.
L:1/8
M:6/8
K:D
|: fdafed  | defeAF  | DFcdGA  | cdAdeg   |1 f2ddda  | defedB | cdedfd | a^aAbc'f 
                                         :|2 f2ddda  | zddcBA | BAaedB | cBAg3  
|: G,DcdcA | e2edcA  | GgdcAd  |FAdcAd    | G,DcdcA  |
   e2edcA  | GgdcAd  | FAdcee :: f2ddd=c  | A2=c^c2A | AAdAGE |FAdcde  | fededc  |
   d=cAdcA |1 d=cAAAA| ecAcde :|2 cdedef  |efgabc'   |

